lib/svgs/terminal.svg

<?xml version="1.0" encoding="UTF-8"?>
<svg width="16px" height="16px" viewBox="0 0 16 16" version="1.1" xmlns="http://www.w3.org/2000/svg" xmlns:xlink="http://www.w3.org/1999/xlink">
    <!-- Generator: sketchtool 51.3 (57544) - http://www.bohemiancoding.com/sketch -->
    <title>app/terminal</title>
    <desc>Created with sketchtool.</desc>
    <defs></defs>
    <g id="Icons" stroke="none" stroke-width="1" fill="none" fill-rule="evenodd">
        <g id="Web" transform="translate(-435.000000, -504.000000)" fill="#000000">
            <g id="app/terminal" transform="translate(435.000000, 504.000000)">
                <path d="M0,3.93333944 L0,14.6000061 C0,14.9680061 0.298666667,15.2666728 0.666666667,15.2666728 L15.3333333,15.2666728 C15.7013333,15.2666728 16,14.9680061 16,14.6000061 L16,3.93333944 L0,3.93333944 M5.80466667,9.7380061 L3.33333333,12.2093394 L2.39066667,11.2666728 L4.39066667,9.26667277 L2.39066667,7.26667277 L3.33333333,6.3240061 L5.80466667,8.79533944 C6.06533333,9.0560061 6.06533333,9.47733944 5.80466667,9.7380061 M11.3333333,11.9333394 L7.33333333,11.9333394 L7.33333333,10.6000061 L11.3333333,10.6000061 L11.3333333,11.9333394 M2.66666667,2.6000061 L2.66666667,0.600006104 L0.666666667,0.600006104 C0.298666667,0.600006104 0,0.89867277 0,1.26667277 L0,2.6000061 L2.66666667,2.6000061 M16,2.6000061 L16,1.26667277 C16,0.89867277 15.7013333,0.600006104 15.3333333,0.600006104 L4,0.600006104 L4,2.6000061 L16,2.6000061" id="Shape"></path>
            </g>
        </g>
    </g>
</svg>

<svg xmlns="http://www.w3.org/2000/svg" viewBox="0 0 16 16">
    <path d="M0 3.933V14.6c0 .368.299.667.667.667h14.666A.667.667 0 0 0 16 14.6V3.933H0m5.805 5.805l-2.472 2.471-.942-.942 2-2-2-2 .942-.943 2.472 2.471c.26.261.26.682 0 .943m5.528 2.195h-4V10.6h4v1.333M2.667 2.6v-2h-2A.667.667 0 0 0 0 1.267V2.6h2.667M16 2.6V1.267A.667.667 0 0 0 15.333.6H4v2h12"/>
</svg>
